X: 12219
T: Fair Jenny
R: polka
M: 2/4
K: Dmajor
D>E F>G|A2 A>A|B2 e>d|{d}c2 BA|d2 c>d|{c}B3 A|A3 z||
F>E F>d|{G}F2 E>D|E>D E>F|G2 A>B|{B}A2 F>A|AG FE|D2 z2||

